app/img/partner-8.svg

<svg width="77" height="73" viewBox="0 0 77 73" fill="none" xmlns="http://www.w3.org/2000/svg">
<g clip-path="url(#clip0)">
<path d="M33.5638 1.28768C42.3807 0.287745 51.506 2.76089 58.6138 8.07143C59.1936 7.54247 59.7501 6.9903 60.2835 6.41261C58.7228 5.22012 57.0578 4.17611 55.344 3.22258C55.3417 2.78177 55.3417 2.34097 55.344 1.90016C60.9259 1.89784 66.5078 1.89784 72.0896 1.90016C72.092 7.48447 72.0873 13.0688 72.0919 18.6531C71.6397 18.6577 71.1898 18.66 70.7423 18.6577C69.8286 16.9084 68.7271 15.2635 67.5583 13.6766C66.9971 14.2404 66.4289 14.8018 65.8654 15.3656C71.8044 23.1864 74.1628 33.5894 72.2566 43.2175C70.6704 51.8202 65.6938 59.7222 58.6811 64.9353C50.2282 71.3849 38.77 73.5867 28.5083 70.8606C20.3639 68.7912 13.0752 63.6477 8.30733 56.7386C5.05375 52.0684 2.94576 46.5955 2.27556 40.9416C1.04185 31.5617 3.81075 21.7364 9.766 14.3889C15.5473 7.09934 24.3039 2.24585 33.5638 1.28768ZM27.5019 11.758C19.6566 14.8575 13.5089 21.9011 11.5377 30.1117C28.8098 30.1186 46.0795 30.1163 63.3516 30.114C61.2784 21.451 54.537 14.0965 46.0911 11.28C40.1104 9.21057 33.3713 9.38457 27.5019 11.758ZM26.9476 33.2669C25.9783 33.5012 25.0321 34.0093 24.4431 34.8329C23.759 35.8561 23.7729 37.2875 24.4361 38.3153C25.1596 39.3013 26.3423 39.8651 27.5413 39.9904C29.1113 40.1922 30.8459 40.0484 32.1468 39.0623C33.6588 37.9766 33.7586 35.464 32.3393 34.2622C30.8621 33.0187 28.7657 32.905 26.9476 33.2669ZM56.3992 33.2669C55.6176 33.4363 54.8918 33.8214 54.2935 34.3434C53.1108 35.4501 53.0783 37.4894 54.1567 38.6795C55.0101 39.5635 56.2438 39.9718 57.4497 40.0437C58.8735 40.1365 60.4296 39.9695 61.5845 39.0507C63.1405 37.9627 63.1939 35.3132 61.661 34.181C60.2023 33.0048 58.1662 32.9189 56.3992 33.2669ZM11.8114 34.239C12.3192 34.2413 12.8271 34.2413 13.3326 34.246C14.3321 36.1298 15.4082 37.9719 16.3961 39.8604C17.5834 39.8744 18.7707 39.8558 19.9558 39.8744C20.997 38.0114 22.0081 36.1322 22.9983 34.2437C23.5178 34.2437 24.0372 34.2367 24.5567 34.2112C24.5544 33.8887 24.5521 33.5639 24.5497 33.2414C23.0192 33.2437 21.4886 33.2368 19.9581 33.246C19.9581 33.5778 19.9558 33.9072 19.9558 34.239C20.3964 34.2413 20.837 34.2413 21.2753 34.2483C20.5889 35.6426 19.7726 36.9674 19.0815 38.3617C18.3023 37.0045 17.6089 35.5985 16.8135 34.2506C17.3492 34.2413 17.8849 34.2413 18.4206 34.239C18.4206 33.9049 18.4206 33.5708 18.4229 33.2391C16.2198 33.246 14.0144 33.2414 11.8114 33.2414C11.8114 33.5732 11.8114 33.9049 11.8114 34.239ZM33.7539 33.2484C33.7516 33.5708 33.7493 33.8933 33.747 34.2158C34.2641 34.239 34.7836 34.2436 35.303 34.246C35.3054 35.7749 35.3007 37.3061 35.3077 38.8373C34.7882 38.8373 34.2688 38.835 33.7516 38.8373C33.7516 39.1737 33.7516 39.5124 33.7516 39.8535C36.8127 39.8581 39.8715 39.8535 42.9326 39.8558C42.9326 38.8419 42.9303 37.8281 42.9349 36.8142C42.6126 36.8142 42.2902 36.8119 41.9679 36.8119C41.8519 37.4592 41.6386 38.197 41.0009 38.5125C40.1985 38.9974 39.2245 38.8002 38.3386 38.835C38.334 37.3038 38.3386 35.7725 38.3363 34.2413C38.8465 34.2413 39.359 34.2413 39.8715 34.2413C39.8715 33.9072 39.8715 33.5732 39.8738 33.2414C37.8331 33.246 35.7923 33.2344 33.7539 33.2484ZM41.2675 33.2414C41.2652 33.5732 41.2652 33.9072 41.2675 34.239C41.7708 34.2413 42.2763 34.2413 42.7842 34.246C43.786 36.1275 44.8365 37.9835 45.8522 39.8604C47.0396 39.8744 48.2246 39.8604 49.4119 39.8697C50.4254 37.9975 51.4643 36.1391 52.4429 34.2483C52.96 34.2437 53.4772 34.2367 53.9943 34.2112C53.992 33.8887 53.9874 33.5662 53.9874 33.2437C52.4615 33.2437 50.9355 33.2391 49.4119 33.246C49.4096 33.5778 49.4073 33.9072 49.4096 34.239C49.8502 34.2413 50.2909 34.2413 50.7338 34.2483C50.0103 35.6333 49.2311 36.9929 48.5122 38.3826C47.8025 36.9859 47.0187 35.6264 46.272 34.2506C46.8123 34.2413 47.355 34.2413 47.8953 34.239C47.8953 33.9049 47.8976 33.5708 47.8976 33.2368C45.6876 33.2484 43.4776 33.2391 41.2675 33.2414ZM11.5308 42.9669C11.8949 44.345 12.303 45.7115 12.899 47.0084C16.1201 54.7527 23.2349 60.7059 31.4071 62.5572C36.5112 63.708 41.9702 63.4064 46.8633 61.5225C54.959 58.5413 61.3363 51.3585 63.3539 42.9669C46.0795 42.9623 28.8051 42.96 11.5308 42.9669Z" fill="#00F0FF"/>
<path d="M27.887 34.3898C28.5316 33.9049 29.5543 34.1555 29.9022 34.884C30.4263 35.9233 30.3961 37.2202 29.8744 38.2573C29.5196 38.9556 28.5316 39.2758 27.8823 38.7839C27.1495 38.313 27.0243 37.3548 26.9895 36.559C27.0266 35.7748 27.1982 34.87 27.887 34.3898Z" fill="#00F0FF"/>
<path d="M57.4845 34.2784C58.1825 33.9211 59.1147 34.283 59.4093 35.0045C59.829 35.9604 59.8105 37.1042 59.4139 38.0647C59.131 38.8001 58.2126 39.2572 57.4752 38.8952C56.6357 38.466 56.4502 37.4081 56.4456 36.5543C56.4572 35.7168 56.6937 34.7122 57.4845 34.2784Z" fill="#00F0FF"/>
</g>
<defs>
<clipPath id="clip0">
<rect width="75.7922" height="71.3338" fill="white" transform="translate(0.876221 0.750732)"/>
</clipPath>
</defs>
</svg>

<svg width="77" height="73" fill="none" xmlns="http://www.w3.org/2000/svg"><g clip-path="url(#clip0)" fill="#00F0FF"><path d="M33.564 1.288c8.817-1 17.942 1.473 25.05 6.783a27.461 27.461 0 001.67-1.658c-1.561-1.193-3.226-2.237-4.94-3.19-.002-.441-.002-.882 0-1.323 5.582-.002 11.164-.002 16.746 0 .002 5.584-.003 11.169.002 16.753-.452.005-.902.007-1.35.005-.913-1.75-2.015-3.395-3.184-4.981-.56.563-1.13 1.125-1.693 1.689 5.94 7.82 8.298 18.223 6.392 27.852-1.587 8.602-6.563 16.504-13.576 21.717-8.453 6.45-19.911 8.652-30.173 5.926-8.144-2.07-15.433-7.213-20.2-14.122-3.254-4.67-5.362-10.143-6.032-15.797-1.234-9.38 1.535-19.206 7.49-26.553 5.781-7.29 14.538-12.143 23.798-13.101zm-6.062 10.47c-7.845 3.1-13.993 10.143-15.964 18.354 17.272.007 34.541.004 51.814.002-2.074-8.663-8.815-16.017-17.26-18.834-5.982-2.07-12.72-1.895-18.59.478zm-.554 21.509c-.97.234-1.916.742-2.505 1.566-.684 1.023-.67 2.455-.007 3.482.724.986 1.906 1.55 3.105 1.675 1.57.202 3.305.058 4.606-.928 1.512-1.085 1.612-3.598.192-4.8-1.477-1.243-3.573-1.357-5.391-.995zm29.451 0a4.766 4.766 0 00-2.105 1.076c-1.183 1.107-1.216 3.146-.137 4.336.853.884 2.087 1.293 3.293 1.365 1.423.093 2.98-.075 4.134-.993 1.556-1.088 1.61-3.738.077-4.87-1.459-1.176-3.495-1.262-5.262-.914zm-44.588.972c.508.002 1.016.002 1.522.007 1 1.884 2.075 3.726 3.063 5.614 1.187.014 2.375-.004 3.56.014a239.59 239.59 0 003.042-5.63c.52 0 1.04-.007 1.559-.033l-.007-.97c-1.53.003-3.061-.004-4.592.005l-.002.993c.44.002.881.002 1.32.01-.687 1.394-1.503 2.718-2.195 4.113-.779-1.358-1.472-2.764-2.267-4.111.535-.01 1.07-.01 1.607-.012 0-.334 0-.668.002-1-2.203.007-4.409.002-6.612.002v.998zm21.943-.99l-.007.967c.517.023 1.037.028 1.556.03.002 1.529-.002 3.06.005 4.591-.52 0-1.04-.002-1.556 0v1.016c3.06.005 6.12 0 9.18.003 0-1.014-.002-2.028.003-3.042l-.967-.002c-.116.647-.33 1.385-.967 1.7-.802.485-1.776.288-2.662.323-.005-1.531 0-3.063-.003-4.594h1.535c0-.334 0-.668.003-1-2.04.005-4.082-.007-6.12.007zm7.514-.008c-.003.332-.003.666 0 .998.503.002 1.008.002 1.516.007 1.002 1.881 2.053 3.737 3.068 5.614 1.188.014 2.373 0 3.56.01 1.013-1.872 2.052-3.73 3.03-5.622a38.423 38.423 0 001.552-.037c-.002-.322-.007-.645-.007-.967-1.526 0-3.052-.005-4.575.002-.002.332-.005.661-.002.993.44.002.88.002 1.324.01-.724 1.384-1.503 2.744-2.222 4.134-.71-1.397-1.493-2.757-2.24-4.132.54-.01 1.083-.01 1.623-.012l.003-1.002c-2.21.011-4.42.002-6.63.004zM11.53 42.967c.364 1.378.772 2.745 1.368 4.041 3.221 7.745 10.336 13.698 18.508 15.55 5.104 1.15 10.563.848 15.456-1.035 8.096-2.982 14.473-10.165 16.49-18.556-17.273-.005-34.548-.007-51.822 0z"/><path d="M27.887 34.39c.645-.485 1.667-.234 2.015.494.524 1.04.494 2.336-.028 3.373-.354.699-1.342 1.019-1.992.527-.733-.471-.858-1.43-.893-2.225.038-.784.21-1.689.898-2.17zm29.597-.112c.698-.357 1.63.005 1.925.727.42.955.401 2.1.005 3.06-.283.735-1.201 1.192-1.939.83-.84-.429-1.025-1.487-1.03-2.34.012-.838.249-1.843 1.04-2.277z"/></g><defs><clipPath id="clip0"><path fill="#fff" transform="translate(.876 .75)" d="M0 0h75.792v71.334H0z"/></clipPath></defs></svg>
